pics/zero one.svg

<?xml version="1.0" encoding="utf-8"?>
<!-- Generator: Adobe Illustrator 27.0.0, SVG Export Plug-In . SVG Version: 6.00 Build 0)  -->
<svg version="1.1" id="Ebene_1" xmlns="http://www.w3.org/2000/svg" xmlns:xlink="http://www.w3.org/1999/xlink" x="0px" y="0px"
	 viewBox="0 0 447.5 447.5" style="enable-background:new 0 0 447.5 447.5;" xml:space="preserve">
<style type="text/css">
	.st0{fill:none;stroke:#F6F2E6;stroke-width:7.44;stroke-miterlimit:10;}
	.st1{fill:none;stroke:#F6F2E6;stroke-width:7.44;stroke-linecap:round;stroke-linejoin:round;}
	.st2{fill:#ECEBE3;}
</style>
<path class="st0" d="M32,310.9c-10.1-24-14.7-49.9-17.6-75.7c-2.3-20.4-3.5-41.3,1-61.3c3.6-15.9,10.7-30.7,18.8-44.8
	c8-14,17.2-27.4,28.1-39.2c22.4-24.2,51.6-40.8,81.5-54.7c11.3-5.3,22.8-10.2,35.1-12.6c15.2-3,30.8-1.9,46.2-0.8
	c28.1,2,57.2,4.4,82.1,17.6c10.6,5.6,20,13,29.3,20.6c22.7,18.6,44.6,38.6,61,62.9c36.9,54.5,41.8,128.6,14,188.3
	c-27.8,59.7-86.8,103.3-151.7,114.1c-35.2,5.9-71.8,2.2-105.4-9.5c-33.7-11.7-60.7-31.5-87.2-54.6C51.6,347.7,40,329.9,32,310.9
	L32,310.9z"/>
<path class="st1" d="M199.9,175.1c-7.1,25.6-11,51.9-14.8,78.2c-0.4,2.8-0.7,5.8,0.9,8.1c1.8,2.6,5.4,3,8.6,3.1
	c12.7,0.4,25.4-1.6,37.4-5.6"/>
<path class="st1" d="M171.6,317.8c11.4,6.2,25.1,5.9,38,5.4c21.9-0.9,45-2.4,63-14.9"/>
<path class="st2" d="M139.4,178.4c0.5-1.1,1.4-2,2.5-2.5c1.1-0.4,2.5-0.3,3.4,0.4c1,0.9,1.4,2.3,1.5,3.6c0.2,1.4,0.2,2.9-0.6,4
	c-0.8,1.3-2.6,1.9-4.1,1.4s-2.6-1.8-2.8-3.4c-0.2-1.5,0.4-3.1,1.5-4.2"/>
<path class="st2" d="M277.8,181.4c0.5,0.9,0,2.2-1,2.7s-2,0.6-3.1,0.6c-0.4,0-0.8,0-1.1-0.1c-0.5-0.1-0.9-0.4-1.2-0.8
	c-1.2-1.2-1.8-3-1.3-4.6s2.3-2.8,3.9-2.4c2.1,0.4,3.1,2.8,3.5,4.8"/>
</svg>

<?xml version="1.0" encoding="UTF-8" standalone="no"?>
<!DOCTYPE svg PUBLIC "-//W3C//DTD SVG 1.1//EN" "http://www.w3.org/Graphics/SVG/1.1/DTD/svg11.dtd">
<svg width="100%" height="100%" viewBox="0 0 448 448" version="1.1" xmlns="http://www.w3.org/2000/svg" xmlns:xlink="http://www.w3.org/1999/xlink" xml:space="preserve" xmlns:serif="http://www.serif.com/" style="fill-rule:evenodd;clip-rule:evenodd;stroke-miterlimit:10;">
    <path d="M32,310.9C21.9,286.9 17.3,261 14.4,235.2C12.1,214.8 10.9,193.9 15.4,173.9C19,158 26.1,143.2 34.2,129.1C42.2,115.1 51.4,101.7 62.3,89.9C84.7,65.7 113.9,49.1 143.8,35.2C155.1,29.9 166.6,25 178.9,22.6C194.1,19.6 209.7,20.7 225.1,21.8C253.2,23.8 282.3,26.2 307.2,39.4C317.8,45 327.2,52.4 336.5,60C359.2,78.6 381.1,98.6 397.5,122.9C434.4,177.4 439.3,251.5 411.5,311.2C383.7,370.9 324.7,414.5 259.8,425.3C224.6,431.2 188,427.5 154.4,415.8C120.7,404.1 93.7,384.3 67.2,361.2C51.6,347.7 40,329.9 32,310.9Z" style="fill:white;fill-rule:nonzero;stroke:black;stroke-width:7.44px;"/>
    <path d="M199.9,175.1C192.8,200.7 188.9,227 185.1,253.3C184.7,256.1 184.4,259.1 186,261.4C187.8,264 191.4,264.4 194.6,264.5C207.3,264.9 220,262.9 232,258.9" style="fill:white;fill-rule:nonzero;stroke:black;stroke-width:7.44px;stroke-linecap:round;stroke-linejoin:round;stroke-miterlimit:4;"/>
    <path d="M171.6,317.8C183,324 196.7,323.7 209.6,323.2C231.5,322.3 254.6,320.8 272.6,308.3" style="fill:white;fill-rule:nonzero;stroke:black;stroke-width:7.44px;stroke-linecap:round;stroke-linejoin:round;stroke-miterlimit:4;"/>
    <path d="M139.4,178.4C139.9,177.3 140.8,176.4 141.9,175.9C143,175.5 144.4,175.6 145.3,176.3C146.3,177.2 146.7,178.6 146.8,179.9C147,181.3 147,182.8 146.2,183.9C145.4,185.2 143.6,185.8 142.1,185.3C140.6,184.8 139.5,183.5 139.3,181.9C139.1,180.4 139.7,178.8 140.8,177.7" style="fill-rule:nonzero;"/>
    <path d="M277.8,181.4C278.3,182.3 277.8,183.6 276.8,184.1C275.8,184.6 274.8,184.7 273.7,184.7C273.3,184.7 272.9,184.7 272.6,184.6C272.1,184.5 271.7,184.2 271.4,183.8C270.2,182.6 269.6,180.8 270.1,179.2C270.6,177.6 272.4,176.4 274,176.8C276.1,177.2 277.1,179.6 277.5,181.6" style="fill-rule:nonzero;"/>
</svg>
